build/img/icons/medium-circle.svg

<svg width="24" height="24" viewBox="0 0 24 24" fill="none" xmlns="http://www.w3.org/2000/svg">
<circle cx="12" cy="12" r="11.5" stroke="white"/>
<g clip-path="url(#clip0)">
<path d="M6 7.32324V8.02148H6.24883C6.53574 8.02148 6.65508 8.04941 6.76172 8.14082C6.92422 8.27793 6.91406 8.0418 6.91406 11.5254C6.91406 15.075 6.9293 14.8033 6.72871 14.9074C6.63984 14.9531 6.56621 14.9633 6.3123 14.9734L6 14.9836V15.6793V16.375H7.86621H9.73242V15.6768V14.9785H9.2627H8.79297V11.7412V8.50391H8.8666C8.93516 8.50391 8.94531 8.5166 8.97578 8.62324C8.99609 8.6918 9.49121 10.4615 10.0777 12.5588L11.1416 16.375H12.0227H12.9063L12.9215 16.3191C12.9291 16.2861 13.4293 14.5189 14.0311 12.3887L15.1279 8.5166L15.199 8.50898L15.2676 8.50137V11.7387V14.9785H14.8105H14.3535V15.6768V16.375H16.6768H19V15.6793V14.9861L18.5633 14.9709C18.0961 14.9582 17.9133 14.9201 17.7254 14.7906L17.6416 14.7348V11.5254V8.31348L17.7635 8.23223C18.0047 8.06973 18.1316 8.03926 18.5887 8.02656L19 8.01641V7.3207V6.625H16.499H14.0006L13.9777 6.70625C13.965 6.75195 13.607 8.00625 13.183 9.48906C12.6447 11.3756 12.4061 12.1754 12.3908 12.1424C12.3807 12.117 12.0252 10.8678 11.6012 9.36719L10.8318 6.6377L8.41465 6.63008L6 6.625V7.32324Z" fill="white"/>
</g>
<defs>
<clipPath id="clip0">
<rect width="13" height="13" fill="white" transform="translate(6 5)"/>
</clipPath>
</defs>
</svg>

<?xml version="1.0" encoding="utf-8"?>
<!-- Generator: Adobe Illustrator 21.1.0, SVG Export Plug-In . SVG Version: 6.00 Build 0)  -->
<svg version="1.1" id="Слой_1" xmlns="http://www.w3.org/2000/svg" xmlns:xlink="http://www.w3.org/1999/xlink" x="0px" y="0px"
	 viewBox="0 0 24 24" style="enable-background:new 0 0 24 24;" xml:space="preserve">
<g>
	<path d="M12,24C5.4,24,0,18.6,0,12C0,5.4,5.4,0,12,0c6.6,0,12,5.4,12,12C24,18.6,18.6,24,12,24z M12,1C5.9,1,1,5.9,1,12
		s4.9,11,11,11s11-4.9,11-11S18.1,1,12,1z"/>
</g>
<g>
	<g>
		<g>
			<path d="M6,7.3V8h0.2c0.3,0,0.4,0,0.5,0.1C6.9,8.3,6.9,8,6.9,11.5c0,3.5,0,3.3-0.2,3.4C6.6,15,6.6,15,6.3,15L6,15v0.7v0.7h1.9
				h1.9v-0.7V15H9.3H8.8v-3.2V8.5h0.1c0.1,0,0.1,0,0.1,0.1c0,0.1,0.5,1.8,1.1,3.9l1.1,3.8H12h0.9l0-0.1c0,0,0.5-1.8,1.1-3.9l1.1-3.9
				l0.1,0l0.1,0v3.2V15h-0.5h-0.5v0.7v0.7h2.3H19v-0.7V15l-0.4,0c-0.5,0-0.6-0.1-0.8-0.2l-0.1-0.1v-3.2V8.3l0.1-0.1
				C18,8.1,18.1,8,18.6,8L19,8V7.3V6.6h-2.5H14l0,0.1c0,0-0.4,1.3-0.8,2.8c-0.5,1.9-0.8,2.7-0.8,2.7c0,0-0.4-1.3-0.8-2.8l-0.8-2.7
				l-2.4,0L6,6.6V7.3z"/>
		</g>
	</g>
</g>
</svg>
